X: 31798
T: Patsy Geary's
R: jig
M: 6/8
K: Dmixolydian
B2B BcA|BGE G2D|GAG G (3Bcd|ecA ABc|
B2B BcA|BGE G2A|Bcd ecA|AGE D3|
B2B BcA|BGE G2D|GAG G (3Bcd|ecA ABc|
B2B BcA|BGE G2A|Bcd ecA|AGE D (3EFG|
A2A ABA|GED D2D|EDE c2A|B (3GGG EFG|
A2A ABA|GED D2A|Bcd ecA|AGE D (3EFG|
A2A ABA|GED D2D|EDE c2A|B (3GGG EFG|
A2A ABA|GED D2A|Bcd ecA|AGE D3|

